X: 835
T: Szcz??cie
C: Stanis?aw Moniuszko
L: 1/8
M: 6/8
N: Derived from pl-wtm--r-794-m_moniuszko-stanislaw-szczescie.krn
V: 1 clef=treble
V: 2 clef=treble
V: 3 clef=bass
K: Ab
[V:1] z2z ]|:  
[V:2] z2z ]|:  
[V:3] {/F,,}F,2D, ]|:  
[V:1] C F G [I:setbarnb 1]| 
[V:2] z2z | 
[V:3] C,A,,G,, | 
[V:1] A2A !accent!G A G | 
[V:2] A,CF B,C=E | 
[V:3] [F,,6F,6] | 
[V:1] G2F F A B | 
[V:2] !accent!A,CF AFC | 
[V:3] [F,,6F,6] | 
[V:1] c2c!accent!=B2B | 
[V:2] !accent!A,CF A,=DF | 
[V:3] [F,,3F,3][F,,3F,3] | 
[V:1] c2>-c2 _B A | 
[V:2] A,CF A,CF | 
[V:3] [F,,6F,6] | 
[V:1] G2G !accent!G {/B} A G & x2x GA G | 
[V:2] !accent!B,C=E B,CE | 
[V:3] [F,,6C,6G,6] | 
[V:1] G2F F =E F | 
[V:2] A,CF CFC | 
[V:3] [F,,3C,3F,3]A,,3 | 
[V:1] !accent!G2G F =D =A & x2x F=D =A | 
[V:2] =B,=DG !accent!B,DF | 
[V:3] [G,,3G,3][G,,3G,3] | 
[V:1] !accent!G2>-G2 =E G | 
[V:2] z G,C =ECG, | 
[V:3] [C,,2C,2]zz2z | 
[V:1] c2>-c2 G c | 
[V:2] z G,C =ECG, | 
[V:3] [C,,2C,2]zz2z | 
[V:1] !accent!_d2>c2 G A | 
[V:2] z [G,_D=E][G,DE] z [CE][B,CE] | 
[V:3] !accent![B,,,2B,,2]z[C,,2C,2]z | 
[V:1] !accent!F=E F BA G & F =E Fx2x | 
[V:2] [A,3C3F3]!accent!G>F =E & x2x[B,2D2][B,C] | 
[V:3] [F,,3F,3][B,,,2B,,2]C, & x2xx2[C,,C,] | 
[V:1] F2zz2z | 
[V:2] [A,2F2]!accent![CA][B,2G2][CA] & A,2xx2x | 
[V:3] C,6 & [F,,6-C,6] | 
[V:1] z2z [I:setbarnb 13]:|]  
[V:2] [A,2F2]z :|]  
[V:3] F,2D, & [F,,2F,2]x :|]  
[V:1] z2z | 
[V:2] z2z | 
[V:3] C,G,,A,, | 
[V:1] !fermata!z6 |]  
[V:2] !accent!!fermata![A,6C6F6] |]  
[V:3] !fermata!F,,6 |]  

